X:1
T:Days of 'Lang Syne -- Jig
R:jig
B:Ryan's Mammoth Collection
O:SCOTCH
Z:Contributed by Ray Davies, ray:davies99.freeserve.co.uk
M:6/8
L:1/8
K:Dmix
U(d/e/)|v(f>.e)ud v(d>.B)uA|"SEGUE"A>Bd "4"e2 (d/e/)|\
f>ed d>BA|A>Bd d2 (d/e/)|f>ed d>BA|A>Bd "4"e2 (d/e/)|\
f>ed d>BA|A>Bd d2|]
u(f/e/)|v(d>.f)a (d>.f)a|b>af e2 (a/g/)|f>ed d>BA|\
A>Bd d2 (f/e/)|d>fa d>fa|b>af e2 (a/g/)|f>ed d>BA|A>Bd d2||
